X:1
T:Title
%%score { ( 1 4 ) | ( 2 3 ) }
L:1/8
M:9/8
K:D
V:1 treble nm="Grand Piano"
V:4 treble 
V:2 bass 
V:3 bass 
V:1
 z3 z3[Q:1/4=100] F=F^F | A3 A3 [DB]2 [DB] | F3- F2 F G2 G | [CA]2 [DB] [Ec]2 [DB] [CA]2 [CE] | %4
 [DF]2 [EG] [FA]3- [FA]2 F | F=F^F [DB]2 [DB] A2 F | B2 c [Fd]3- [Fd]2 [DF] | E2 E ^G2 A B2 E | %8
 z3 c6 | [Dd][Fc][FB] [FA]3 [FB][FA][FB] | A,2- [A,EG] [DFA]6 | [DFA][A,DF][FB] [FA][FA]F G2 F | %12
 F2 B B3- B2 B | ^A3 F2 ^G ABc | [Fd]6 Bcd | d3 [DA]2 [A,DF][K:bass] D-[DE][K:treble][A,DF] | %16
[M:3/4] [G,CE]3[K:bass] .[F,A,D]3 |] %17
V:2
 z3 z3 [D,A,D][D,^G,D][D,A,D] | [D,F,D]3 [D,F,D]3 [B,,F,]2 [B,,G,] | %2
 [D,A,D]3- [D,A,D]2 [D,A,D] [E,G,B,]2 [E,G,B,] | %3
 [A,,G,]2 [A,,G,] [A,,G,]2 [A,,G,] [A,,G,]2 [A,,G,] | [D,A,]2 [D,A,] [D,D]3- [D,D]2 [D,A,D] | %5
 .A,3 z3 z3 | [F,B,D]2 [F,^A,E] [B,,B,]3- [B,,B,]2 [B,,B,] | %7
 [E,B,D]2 [E,B,D] [E,B,D]2 [E,F,D] [E,^G,D]2 [E,G,D] | z3 A,3 z3 | %9
 [D,F,][D,A,][D,A,] [D,D]3 [D,A,][D,A,][D,A,] | D,2 D, D,2 A,, D,3 | %11
 D,D,[D,D] [D,D][D,D][D,A,D] [D,B,D]2 [D,A,D] | [G,B,D]2 [G,DE] [G,DE]3- [G,DE]2 [G,B,E] | %13
 [F,CE]3 [F,CE]2 [F,CE] C^G,[F,^A,E] | [B,,B,]6[K:treble] [^G,D=F][G,CF][G,B,F] | %15
 F3- [A,,F]2[K:bass] A,, z G,A,, |[M:3/4] A,,3 .D,3 |] %17
V:3
 x9 | x9 | x9 | x9 | x9 | [D,D]-[D,^G,D][D,A,D] [B,,F,B,]2 [B,,F,] [F,A,C]2 [F,A,C] | x9 | x9 | %8
 [E,F,D]2 [E,^G,D] A,,6 | x9 | x9 | x9 | x9 | z3 z3 .[F,E]3 | x6[K:treble] x3 | %15
 A,3 z3[K:bass] .A,,3 |[M:3/4] x6 |] %17
V:4
 x9 | x9 | x9 | x9 | x9 | x9 | x9 | x9 | A2 B C3 [G,E]3 | x9 | .[DF]3 z3 z3 | x9 | x9 | x9 | x9 | %15
 z3 z3[K:bass] .F,3[K:treble] |[M:3/4] x3[K:bass] x3 |] %17

